assets/platzi.svg

<?xml version="1.0" encoding="utf-8"?>
<!-- Generator: Adobe Illustrator 24.1.0, SVG Export Plug-In . SVG Version: 6.00 Build 0)  -->
<svg version="1.1" id="Layer_1" xmlns="http://www.w3.org/2000/svg" xmlns:xlink="http://www.w3.org/1999/xlink" x="0px" y="0px"
	 viewBox="0 0 40 44.8" style="enable-background:new 0 0 40 44.8;" xml:space="preserve">
<style type="text/css">
	.st0{fill:#C5A059;}
</style>
<g>
	<path class="st0" d="M26,30.1c1.4,1.2,2.8,2.5,4.5,4c-1.8,1.8-3.4,3.4-5.1,4.9c-2.1,1.8-4.9,1.8-6.9-0.2c-4.5-4.2-8.8-8.5-13-12.9
		c-2.1-2.2-2-5,0.1-7.2c4.1-4.2,8.3-8.4,12.6-12.5c2.4-2.3,5.2-2.2,7.6,0.1c2.8,2.7,5.6,5.6,8.4,8.4c1.9,1.9,2.4,4.7,0.8,6.5
		c-2.8,3.1-6,5.9-9.1,8.8c-1.2-1.3-2.3-2.5-3.8-4.2c2.6-2.6,5.1-5,7.4-7.3C27,15.9,24.4,13.4,22,11c-3.8,3.8-7.7,7.7-11.3,11.4
		c3.7,3.7,7.6,7.7,11.6,11.7C23.5,32.9,24.7,31.5,26,30.1z"/>
</g>
</svg>

<?xml version="1.0" encoding="UTF-8" standalone="no"?>
<!DOCTYPE svg PUBLIC "-//W3C//DTD SVG 1.1//EN" "http://www.w3.org/Graphics/SVG/1.1/DTD/svg11.dtd">
<svg width="100%" height="100%" viewBox="0 0 32 36" version="1.1" xmlns="http://www.w3.org/2000/svg" xmlns:xlink="http://www.w3.org/1999/xlink" xml:space="preserve" xmlns:serif="http://www.serif.com/" style="fill-rule:evenodd;clip-rule:evenodd;stroke-linejoin:round;stroke-miterlimit:2;">
    <g transform="matrix(1,0,0,1,-3.974107,-4.524185)">
        <path d="M26,30.1C27.4,31.3 28.8,32.6 30.5,34.1C28.7,35.9 27.1,37.5 25.4,39C23.3,40.8 20.5,40.8 18.5,38.8C14,34.6 9.7,30.3 5.5,25.9C3.4,23.7 3.5,20.9 5.6,18.7C9.7,14.5 13.9,10.3 18.2,6.2C20.6,3.9 23.4,4 25.8,6.3C28.6,9 31.4,11.9 34.2,14.7C36.1,16.6 36.6,19.4 35,21.2C32.2,24.3 29,27.1 25.9,30C24.7,28.7 23.6,27.5 22.1,25.8C24.7,23.2 27.2,20.8 29.5,18.5C27,15.9 24.4,13.4 22,11C18.2,14.8 14.3,18.7 10.7,22.4C14.4,26.1 18.3,30.1 22.3,34.1C23.5,32.9 24.7,31.5 26,30.1Z" style="fill:rgb(244,241,238);fill-rule:nonzero;"/>
    </g>
</svg>
